Yosa-Max/places/scalable/folder-network.svg

<?xml version="1.0" encoding="UTF-8"?>
<svg id="svg5453" version="1.1" viewBox="0 0 64 64" xmlns="http://www.w3.org/2000/svg">
 <defs id="defs5455">
  <linearGradient id="linearGradient833" x1="32.010437" x2="31.962496" y1="57.89262" y2="15.119835" gradientTransform="translate(0,-3.8146973e-6)" gradientUnits="userSpaceOnUse">
   <stop id="stop827" style="stop-color:#20bcfa" offset="0"/>
   <stop id="stop829" style="stop-color:#46c7fc" offset="1"/>
  </linearGradient>
  <style id="current-color-scheme" type="text/css">.ColorScheme-Text {
        color:#4d4d4d;
      }</style>
  <style id="current-color-scheme-3" type="text/css">.ColorScheme-Text {
        color:#4d4d4d;
      }</style>
 </defs>
 <path id="folderTab-3" d="m4 6c-0.55122 0.05512-1 0.446-1 1v42h58v-38c0-1-1-1-1-1h-27c-2-4-6-4-6-4h-22z" style="fill-rule:evenodd;fill:#209efa"/>
 <path id="folderPaper-6" d="m7 13h50v32h-50z" style="color-rendering:auto;color:#000000;fill:#fffbec;image-rendering:auto;isolation:auto;mix-blend-mode:normal;shape-rendering:auto;solid-color:#000000;text-decoration-color:#000000;text-decoration-line:none;text-decoration-style:solid;white-space:normal"/>
 <path id="folderFront-2" d="m39 14.999996s-4 0-6 4h-31s-0.1319813 0.01691-0.2890625 0.05859c-0.045956 0.01404-0.091922 0.02277-0.1347656 0.04297-0.2742277 0.109838-0.5761719 0.34321-0.5761719 0.89844v37c0 0.55397 0.44603 1 1 1h60c0.55397 0 1-0.44603 1-1v-41c0-0.55397-0.44603-1-1-1h-1z" style="fill-rule:evenodd;fill:url(#linearGradient833)"/>
 <path id="folderGlyph-1" d="m22 27.999998v4.000002h9v12h-2v0.999994h-7v2h7v1.000006h6v-1.000006h7v-2h-7v-0.999994h-2v-12h9v-4.000002zm18 0.999995c0.554 0 1 0.446006 1 1.000005 0 0.554-0.446 0.999995-1 0.999995s-1-0.445996-1-0.999995 0.446-1.000005 1-1.000005zm-8 16c0.554 0 1 0.446007 1 1.000006s-0.446 0.999995-1 0.999995-1-0.445996-1-0.999995 0.446-1.000006 1-1.000006z" style="color-rendering:auto;color:#000000;fill:#f9f9f9;image-rendering:auto;isolation:auto;mix-blend-mode:normal;shape-rendering:auto;solid-color:#000000"/>
</svg>

<?xml version="1.0" encoding="UTF-8" standalone="no"?>
<svg
   xmlns:dc="http://purl.org/dc/elements/1.1/"
   xmlns:cc="http://creativecommons.org/ns#"
   xmlns:rdf="http://www.w3.org/1999/02/22-rdf-syntax-ns#"
   xmlns:svg="http://www.w3.org/2000/svg"
   xmlns="http://www.w3.org/2000/svg"
   xmlns:xlink="http://www.w3.org/1999/xlink"
   xmlns:sodipodi="http://sodipodi.sourceforge.net/DTD/sodipodi-0.dtd"
   xmlns:inkscape="http://www.inkscape.org/namespaces/inkscape"
   viewBox="0 0 64 64"
   version="1.1"
   id="svg5453"
   height="64"
   width="64"
   sodipodi:docname="folder-network.svg"
   inkscape:version="0.92.4 (unknown)">
  <sodipodi:namedview
     pagecolor="#ffffff"
     bordercolor="#666666"
     borderopacity="1"
     objecttolerance="10"
     gridtolerance="10"
     guidetolerance="10"
     inkscape:pageopacity="0"
     inkscape:pageshadow="2"
     inkscape:window-width="1366"
     inkscape:window-height="711"
     id="namedview26"
     showgrid="false"
     inkscape:zoom="8.1153846"
     inkscape:cx="9.8815165"
     inkscape:cy="32"
     inkscape:window-x="0"
     inkscape:window-y="0"
     inkscape:window-maximized="1"
     inkscape:current-layer="svg5453" />
  <defs
     id="defs5455">
    <linearGradient
       id="linearGradient831">
      <stop
         style="stop-color:#20bcfa;stop-opacity:1;"
         offset="0"
         id="stop827" />
      <stop
         style="stop-color:#46c7fc;stop-opacity:1"
         offset="1"
         id="stop829" />
    </linearGradient>
    <linearGradient
       xlink:href="#linearGradient831"
       id="linearGradient833"
       x1="32.010437"
       y1="57.89262"
       x2="31.962496"
       y2="15.119835"
       gradientUnits="userSpaceOnUse"
       gradientTransform="translate(0,-3.8146973e-6)" />
    <style
       id="current-color-scheme"
       type="text/css">
      .ColorScheme-Text {
        color:#4d4d4d;
      }
      </style>
    <style
       type="text/css"
       id="current-color-scheme-3">
      .ColorScheme-Text {
        color:#4d4d4d;
      }
      </style>
  </defs>
  <metadata
     id="metadata5458">
    <rdf:RDF>
      <cc:Work
         rdf:about="">
        <dc:format>image/svg+xml</dc:format>
        <dc:type
           rdf:resource="http://purl.org/dc/dcmitype/StillImage" />
        <dc:title />
      </cc:Work>
    </rdf:RDF>
  </metadata>
  <path
     style="fill:#209efa;fill-opacity:1;fill-rule:evenodd;stroke:none;stroke-width:1px;stroke-linecap:butt;stroke-linejoin:miter;stroke-opacity:1"
     d="M 4,6 C 3.44878,6.05512 3,6.446 3,7 V 9 49 H 61 V 14 13 11 c 0,-1 -1,-1 -1,-1 H 58 37 33 C 31,6 27,6 27,6 H 5 Z"
     id="folderTab-3" />
  <path
     style="color:#000000;text-decoration:none;text-decoration-line:none;text-decoration-style:solid;text-decoration-color:#000000;white-space:normal;clip-rule:nonzero;display:inline;overflow:visible;visibility:visible;opacity:1;isolation:auto;mix-blend-mode:normal;color-interpolation:sRGB;color-interpolation-filters:linearRGB;solid-color:#000000;solid-opacity:1;fill:#fffbec;fill-opacity:1;fill-rule:nonzero;stroke:none;stroke-width:1;stroke-linecap:butt;stroke-linejoin:miter;stroke-miterlimit:4;stroke-dasharray:none;stroke-dashoffset:0;stroke-opacity:1;color-rendering:auto;image-rendering:auto;shape-rendering:auto;text-rendering:auto;enable-background:accumulate"
     d="M 7,13 H 57 V 45 H 7 Z"
     id="folderPaper-6" />
  <path
     style="fill:url(#linearGradient833);fill-opacity:1;fill-rule:evenodd;stroke:none;stroke-width:1px;stroke-linecap:butt;stroke-linejoin:miter;stroke-opacity:1"
     d="m 39,14.999996 c 0,0 -4,0 -6,4 H 29 4 2 c 0,0 -0.1319813,0.01691 -0.2890625,0.05859 -0.045956,0.01404 -0.091922,0.02277 -0.1347656,0.04297 C 1.3019442,19.211394 1,19.444766 1,19.999996 v 2 1 34 c 0,0.55397 0.44603,1 1,1 h 60 c 0.55397,0 1,-0.44603 1,-1 v -39 -2 c 0,-0.55397 -0.44603,-1 -1,-1 h -1 z"
     id="folderFront-2" />
  <path
     inkscape:connector-curvature="0"
     id="folderGlyph-1"
     d="M 22,27.999998 V 32 h 9 v 12 h -2 v 0.999994 h -7 v 2 h 7 V 48 h 6 v -1.000006 h 7 v -2 H 35 V 44 H 33 V 32 h 9 v -4.000002 z m 18,0.999995 c 0.554,0 1,0.446006 1,1.000005 0,0.554 -0.446,0.999995 -1,0.999995 -0.554,0 -1,-0.445996 -1,-0.999995 0,-0.553999 0.446,-1.000005 1,-1.000005 z m -8,16 c 0.554,0 1,0.446007 1,1.000006 0,0.553999 -0.446,0.999995 -1,0.999995 -0.554,0 -1,-0.445996 -1,-0.999995 0,-0.553999 0.446,-1.000006 1,-1.000006 z"
     style="color:#000000;clip-rule:nonzero;display:inline;overflow:visible;visibility:visible;opacity:1;isolation:auto;mix-blend-mode:normal;color-interpolation:sRGB;color-interpolation-filters:linearRGB;solid-color:#000000;solid-opacity:1;fill:#e3f9f9;fill-opacity:1;fill-rule:nonzero;stroke:none;stroke-width:0.97014171;stroke-linecap:butt;stroke-linejoin:miter;stroke-miterlimit:4;stroke-dasharray:none;stroke-dashoffset:0;stroke-opacity:1;color-rendering:auto;image-rendering:auto;shape-rendering:auto;text-rendering:auto;enable-background:accumulate" />
</svg>
